teeny/solid/flip-horizontal.svg

<svg width="15" height="15" viewBox="0 0 15 15" fill="none" xmlns="http://www.w3.org/2000/svg">
<path d="M3.23713 0.0746751C3.38454 -0.0164282 3.56861 -0.0247102 3.72361 0.0527869L11.7236 4.05279C11.931 4.15649 12.0399 4.38919 11.9866 4.61488C11.9333 4.84056 11.7319 5 11.5 5H3.5C3.22386 5 3 4.77614 3 4.5V0.500001C3 0.326712 3.08973 0.165778 3.23713 0.0746751Z" fill="black"/>
<path d="M0 8H15V7H0V8Z" fill="black"/>
<path d="M3.5 10C3.22386 10 3 10.2239 3 10.5V14.5C3 14.6733 3.08973 14.8342 3.23713 14.9253C3.38454 15.0164 3.56861 15.0247 3.72361 14.9472L11.7236 10.9472C11.931 10.8435 12.0399 10.6108 11.9866 10.3851C11.9333 10.1594 11.7319 10 11.5 10H3.5Z" fill="black"/>
</svg>

<svg viewBox="0 0 15 15" xmlns="http://www.w3.org/2000/svg"><g><path d="M3.23.07c.14-.1.33-.1.48-.03l7.99 4c.2.1.31.33.26.56 -.06.22-.26.38-.49.38h-8c-.28 0-.5-.23-.5-.5v-4c0-.18.08-.34.23-.43Z"/><path d="M0 8h15V7H0v1Z"/><path d="M3.5 10c-.28 0-.5.22-.5.5v4c0 .17.08.33.23.42 .14.09.33.09.48.02l7.99-4c.2-.11.31-.34.26-.57 -.06-.23-.26-.39-.49-.39h-8Z"/></g></svg>
